X:253
T:The Golden Castle
S:Aethena Tergis https://www.youtube.com/watch?v=We2NFoOtPzc
C:Junior Crehan
Z:robin.beech@mcgill.ca
N:transposed from Gdor
R:reel
M:4/4
L:1/8
K:Ddor
A,DCE D2E/F/G | ABcA d4 | dcAG EAGE | EDCA, C2A,G, |
A,DCE D2E/F/G | ABcA dcde | dcAG EAGE |1 EDDC D4 :|2 EDDC DEFG |:
Ad2e f3d | dcAB c3e | dcAG E/G/AGE | EDCA, C2A,G, |
A,DCE D2E/F/G | ABcA d3e | dcAG EAGE |1 EDDC DEFG :|2 EDDC D4 |]
